project/img/advantares-icon/icon-6.svg

<svg width="40" height="40" viewBox="0 0 40 40" fill="none" xmlns="http://www.w3.org/2000/svg">
<path d="M20 40C31.0457 40 40 31.0457 40 20C40 8.9543 31.0457 0 20 0C8.9543 0 0 8.9543 0 20C0 31.0457 8.9543 40 20 40Z" fill="#324A5E"/>
<path d="M32.5546 27.2237C28.4278 26.7168 24.111 27.2712 19.9922 28.8395C19.9922 22.6534 19.9922 16.6178 19.9922 10.7247C23.9684 9.25934 28.1268 8.74449 32.111 9.21974C32.2615 15.0811 32.4041 21.0772 32.5546 27.2237Z" fill="#E6E9EE"/>
<path d="M30.3921 11.8496C27.5406 11.7229 24.6258 12.0872 21.7822 12.9268C21.7822 12.6892 21.7822 12.4437 21.7822 12.206C24.6258 11.3664 27.5327 11.0021 30.3763 11.1288C30.3842 11.3744 30.3921 11.612 30.3921 11.8496Z" fill="#4CDBC4"/>
<path d="M30.4475 14.408C27.5801 14.2813 24.6574 14.6457 21.79 15.4932C21.79 15.2476 21.79 15.01 21.79 14.7645C24.6494 13.917 27.5722 13.5526 30.4316 13.6793C30.4395 13.917 30.4395 14.1625 30.4475 14.408Z" fill="#4CDBC4"/>
<path d="M30.5029 16.9824C27.6198 16.8557 24.6812 17.22 21.8059 18.0834C21.8059 17.8378 21.8059 17.5923 21.8059 17.3468C24.6812 16.4913 27.6198 16.119 30.495 16.2537C30.495 16.4913 30.495 16.7369 30.5029 16.9824Z" fill="#4CDBC4"/>
<path d="M30.5585 19.5883C27.6674 19.4536 24.7051 19.8338 21.814 20.6972C21.814 20.4517 21.814 20.1982 21.814 19.9526C24.6971 19.0893 27.6516 18.717 30.5427 18.8437C30.5427 19.0893 30.5506 19.3348 30.5585 19.5883Z" fill="#4CDBC4"/>
<path d="M30.6137 22.2178C27.7068 22.0831 24.7286 22.4633 21.8296 23.3426C21.8296 23.0891 21.8296 22.8435 21.8296 22.5901C24.7286 21.7188 27.6989 21.3386 30.6058 21.4732C30.5979 21.7188 30.6058 21.9643 30.6137 22.2178Z" fill="#4CDBC4"/>
<path d="M30.6693 24.8714C27.7466 24.7368 24.7604 25.117 21.8376 26.0041C21.8376 25.7506 21.8376 25.4972 21.8376 25.2437C24.7525 24.3645 27.7386 23.9764 30.6614 24.111C30.6535 24.3645 30.6614 24.618 30.6693 24.8714Z" fill="#4CDBC4"/>
<path d="M7.44556 27.2237C11.5723 26.7168 15.8891 27.2712 20.0079 28.8395C20.0079 22.6534 20.0079 16.6178 20.0079 10.7247C16.0317 9.25934 11.8733 8.74449 7.88912 9.21974C7.73863 15.0811 7.59605 21.0772 7.44556 27.2237Z" fill="white"/>
<path d="M9.60791 11.8496C12.4594 11.7229 15.3742 12.0872 18.2178 12.9268C18.2178 12.6892 18.2178 12.4437 18.2178 12.206C15.3742 11.3664 12.4673 11.0021 9.62375 11.1288C9.61583 11.3744 9.60791 11.612 9.60791 11.8496Z" fill="#4CDBC4"/>
<path d="M9.55225 14.408C12.4196 14.2813 15.3423 14.6457 18.2097 15.4932C18.2097 15.2476 18.2097 15.01 18.2097 14.7645C15.3503 13.917 12.4275 13.5526 9.56809 13.6793C9.56017 13.917 9.56017 14.1625 9.55225 14.408Z" fill="#4CDBC4"/>
<path d="M9.49683 16.9824C12.38 16.8557 15.3186 17.22 18.1939 18.0834C18.1939 17.8378 18.1939 17.5923 18.1939 17.3468C15.3186 16.4913 12.38 16.119 9.50475 16.2537C9.50475 16.4913 9.50475 16.7369 9.49683 16.9824Z" fill="#4CDBC4"/>
<path d="M9.44141 19.5883C12.3325 19.4536 15.2949 19.8338 18.186 20.6972C18.186 20.4517 18.186 20.1982 18.186 19.9526C15.3028 19.0893 12.3483 18.717 9.45725 18.8437C9.45725 19.0893 9.44933 19.3348 9.44141 19.5883Z" fill="#4CDBC4"/>
<path d="M9.38599 22.2178C12.2929 22.0831 15.2711 22.4633 18.1781 23.3426C18.1781 23.0891 18.1781 22.8435 18.1781 22.5901C15.2791 21.7188 12.3088 21.3386 9.40183 21.4732C9.40183 21.7188 9.39391 21.9643 9.38599 22.2178Z" fill="#4CDBC4"/>
<path d="M9.33057 24.8714C12.2533 24.7368 15.2395 25.117 18.1622 26.0041C18.1622 25.7506 18.1622 25.4972 18.1622 25.2437C15.2474 24.3645 12.2613 23.9764 9.33849 24.111C9.34641 24.3645 9.33849 24.618 9.33057 24.8714Z" fill="#4CDBC4"/>
<path d="M30.1703 21.6158C29.6633 21.592 29.2356 21.9959 29.2356 22.495V22.2494C29.2356 21.7742 28.8792 21.3385 28.396 21.3148C27.8891 21.291 27.4613 21.695 27.4613 22.194V21.9484C27.4613 21.4732 27.1049 21.0375 26.6217 21.0138C26.1148 20.99 25.6871 21.394 25.6871 21.893V17.7821C25.6871 17.3068 25.3307 16.8712 24.8475 16.8474C24.3406 16.8237 23.9128 17.2276 23.9128 17.7266V28.1583H23.9049L23.2554 27.192V26.3049C23.2554 25.3464 22.4792 24.5702 21.5208 24.5702V28.1504L23.9049 30.9227H29.8217C30.4633 30.9227 30.9861 30.3999 30.9861 29.7583V22.5187C31.0099 22.0752 30.6534 21.6395 30.1703 21.6158Z" fill="#FF7058"/>
</svg>

<svg width="40" height="40" fill="none" xmlns="http://www.w3.org/2000/svg"><path d="M20 40c11.046 0 20-8.954 20-20S31.046 0 20 0 0 8.954 0 20s8.954 20 20 20z" fill="#324A5E"/><path d="M32.555 27.224c-4.127-.507-8.444.047-12.563 1.616V10.725c3.976-1.466 8.135-1.98 12.119-1.505.15 5.861.293 11.857.444 18.004z" fill="#E6E9EE"/><path d="M30.392 11.85c-2.851-.127-5.766.237-8.61 1.077v-.721c2.844-.84 5.75-1.204 8.594-1.077.008.245.016.483.016.72zm.056 2.558c-2.868-.127-5.79.238-8.658 1.085v-.729a26.337 26.337 0 018.642-1.085c.008.238.008.483.016.729zm.055 2.574a26.235 26.235 0 00-8.697 1.101v-.736c2.875-.856 5.814-1.228 8.689-1.093 0 .237 0 .483.008.728zm.055 2.606c-2.89-.134-5.853.246-8.744 1.11v-.745a26.432 26.432 0 018.729-1.11c0 .246.008.492.015.745zm.056 2.63c-2.907-.135-5.885.245-8.784 1.125v-.753c2.899-.871 5.869-1.251 8.776-1.117-.008.246 0 .491.008.745zm.056 2.653c-2.923-.134-5.91.246-8.832 1.133v-.76c2.915-.88 5.9-1.268 8.823-1.133-.008.253 0 .507.008.76z" fill="#4CDBC4"/><path d="M7.446 27.224c4.126-.507 8.443.047 12.562 1.616V10.725c-3.976-1.466-8.135-1.98-12.119-1.505-.15 5.861-.293 11.857-.443 18.004z" fill="#fff"/><path d="M9.608 11.85c2.851-.127 5.766.237 8.61 1.077v-.721c-2.844-.84-5.75-1.204-8.594-1.077-.008.245-.016.483-.016.72zm-.056 2.558c2.868-.127 5.79.238 8.658 1.085v-.729a26.337 26.337 0 00-8.642-1.085c-.008.238-.008.483-.016.729zm-.055 2.574a26.235 26.235 0 018.697 1.101v-.736c-2.875-.856-5.814-1.228-8.69-1.093 0 .237 0 .483-.007.728zm-.056 2.606c2.891-.134 5.854.246 8.745 1.11v-.745a26.432 26.432 0 00-8.729-1.11c0 .246-.008.492-.016.745zm-.055 2.63c2.907-.135 5.885.245 8.792 1.125v-.753c-2.899-.871-5.87-1.251-8.776-1.117 0 .246-.008.491-.016.745zm-.056 2.653c2.923-.134 5.91.246 8.832 1.133v-.76c-2.915-.88-5.9-1.268-8.824-1.133.008.253 0 .507-.007.76z" fill="#4CDBC4"/><path d="M30.17 21.616a.89.89 0 00-.934.879v-.246c0-.475-.357-.91-.84-.934a.89.89 0 00-.935.879v-.246c0-.475-.356-.91-.84-.934a.89.89 0 00-.934.879v-4.11c0-.476-.356-.912-.84-.936a.89.89 0 00-.934.88v10.431h-.008l-.65-.966v-.887c0-.959-.776-1.735-1.734-1.735v3.58l2.384 2.773h5.917c.641 0 1.164-.523 1.164-1.165v-7.24a.874.874 0 00-.816-.902z" fill="#FF7058"/></svg>
